storage/app/icons/phosphoricons/duotone/cards-duotone.svg

<svg xmlns="http://www.w3.org/2000/svg" fill="currentColor" viewBox="0 0 256 256"><path d="M192 88v112a8 8 0 0 1-8 8H40a8 8 0 0 1-8-8V88a8 8 0 0 1 8-8h144a8 8 0 0 1 8 8" opacity=".2"/><path d="M184 72H40a16 16 0 0 0-16 16v112a16 16 0 0 0 16 16h144a16 16 0 0 0 16-16V88a16 16 0 0 0-16-16m0 128H40V88h144zm48-144v120a8 8 0 0 1-16 0V56H64a8 8 0 0 1 0-16h152a16 16 0 0 1 16 16"/></svg>

<svg xmlns="http://www.w3.org/2000/svg" viewBox="0 0 256 256" fill="currentColor"><path d="M192,88V200a8,8,0,0,1-8,8H40a8,8,0,0,1-8-8V88a8,8,0,0,1,8-8H184A8,8,0,0,1,192,88Z" opacity="0.2"/><path d="M184,72H40A16,16,0,0,0,24,88V200a16,16,0,0,0,16,16H184a16,16,0,0,0,16-16V88A16,16,0,0,0,184,72Zm0,128H40V88H184V200ZM232,56V176a8,8,0,0,1-16,0V56H64a8,8,0,0,1,0-16H216A16,16,0,0,1,232,56Z"/></svg>
